icons/zodiac-capricorn.svg

<svg width="24" height="24" viewBox="0 0 24 24" fill="none" xmlns="http://www.w3.org/2000/svg">
<path fill-rule="evenodd" clip-rule="evenodd" d="M3 3C3 2.44772 3.44772 2 4 2C5.19469 2 6.26706 2.52375 7 3.35418C7.73294 2.52375 8.80531 2 10 2C12.2091 2 14 3.79086 14 6V13.5351C14.5883 13.1948 15.2714 13 16 13C18.2091 13 20 14.7909 20 17C20 19.2091 18.2091 21 16 21C15.0204 21 14.123 20.6478 13.4275 20.0632C12.7274 21.2239 11.4543 22 10 22C9.44772 22 9 21.5523 9 21C9 20.4477 9.44772 20 10 20C11.1046 20 12 19.1046 12 18V6C12 4.89543 11.1046 4 10 4C8.89543 4 8 4.89543 8 6V16C8 16.5523 7.55228 17 7 17C6.44772 17 6 16.5523 6 16V6C6 4.89543 5.10457 4 4 4C3.44772 4 3 3.55228 3 3ZM14 17C14 18.1046 14.8954 19 16 19C17.1046 19 18 18.1046 18 17C18 15.8954 17.1046 15 16 15C14.8954 15 14 15.8954 14 17Z" fill="black"/>
</svg>

<svg
  width="24"
  height="24"
  viewBox="0 0 24 24"
  xmlns="http://www.w3.org/2000/svg"
>
  <path
    fill-rule="evenodd"
    clip-rule="evenodd"
    d="M3 3a1 1 0 0 1 1-1 3.99 3.99 0 0 1 3 1.354A4 4 0 0 1 14 6v7.535a4 4 0 1 1-.572 6.528A3.998 3.998 0 0 1 10 22a1 1 0 1 1 0-2 2 2 0 0 0 2-2V6a2 2 0 1 0-4 0v10a1 1 0 1 1-2 0V6a2 2 0 0 0-2-2 1 1 0 0 1-1-1zm11 14a2 2 0 1 0 4 0 2 2 0 0 0-4 0z"
  />
</svg>
